packages/assets/application-icons/23.Graph.svg

<svg width="24" height="24" viewBox="0 0 24 24" xmlns="http://www.w3.org/2000/svg"><path d="M4.8 3v16.2H21V21H3V3h1.8ZM21 5.7v4.5h-1.8V8.76l-6.3 6.3-2.7-2.7-3.24 3.24-1.26-1.26 4.5-4.5 2.7 2.7 5.04-5.04H16.5V5.7H21Z" fill="#000" fill-rule="nonzero"/></svg>

<?xml version="1.0" encoding="UTF-8"?>
<svg width="24px" height="24px" viewBox="0 0 24 24" version="1.1" xmlns="http://www.w3.org/2000/svg" xmlns:xlink="http://www.w3.org/1999/xlink">
    <title>23.Graph</title>
    <g id="Page-1" stroke="none" stroke-width="1" fill="none" fill-rule="evenodd">
        <g id="Artboard" transform="translate(-201.000000, -203.000000)" fill="#000000" fill-rule="nonzero">
            <g id="23.Graph" transform="translate(201.000000, 203.000000)">
                <path d="M4.8,3 L4.8,19.2 L21,19.2 L21,21 L3,21 L3,3 L4.8,3 Z M21,5.7 L21,10.2 L19.2,10.2 L19.2,8.76 L12.9,15.06 L10.2,12.36 L6.96,15.6 L5.7,14.34 L10.2,9.84 L12.9,12.54 L17.94,7.5 L16.5,7.5 L16.5,5.7 L21,5.7 Z" id="Graph"></path>
            </g>
        </g>
    </g>
</svg>
